X:1
T: Lady Muir McKenzie's Favourite
C:Niel Gow
R:Strathspey
Q: 128
K:D
M:4/4
L:1/16
|:B,2|A,2B,2 D2E2 D6 E2|D2EF GABc d6 B2|B2A2 G2F2 G2F2 E2D2|D2E2 F2D2 B,6 D2|
A,2B,2 D2E2 D6 E2|D2EF GABc d6 B2|B2A2 G2F2 A2G2 F2E2|D8 D4:|((3ABc) |
d2e2 f2e2 d6 A2|B2c2 d2c2 B2A2 G2F2|E2D2 E2F2 G2F2 E2D2|D2E2 F2D2 B,6 A2|
d2e2 f2e2 d6 A2|B2c2 d2c2 B2A2 G2F2|A2F2 E2D2 E2D2 E2F2|d8 d6 A2|
d2e2 f2e2 d6 A2|B2c2 d2c2 B2A2 G2F2|E2D2 E2F2 G2F2 E2D2|D2E2 F2D2 B,6 E2|
A,2B,2 D2E2 D6 E2|D2EF GABc d6 B2|B2A2 G2F2 A2G2 F2E2|D8 D4||
